X:22
T:The Two Lovers Waltz
R:Waltz
C:Jim McGraw
O:Co. Fermanagh, Ireland
S:http://www.cranfordpub.com/recordings/mcgraw.htm
D:Melodious Accord, Jim McGraw
Z:psc
H:A tune I penned in 2001 as part of a music project.
L:1/8
Q:244
M:3/4
K:Bdor
C2|B,3 ({C/B,}A,) B,C|D4 F2|E3 F A2|B4 dc|
B4 AF|E C3 ({DC}B,)C|A,6-|A,4 F,2|
B,3 ({C/B,}A,) B,C|D4 F2|E3 F A2|B4 dc|
B4 AF|E C3 F2|B,6-|B,4:|
|:F2|B3 c BA|F3 d cB|A3 F EC|A,4 (3FGA|
B3 c BA|F2 E2(3FGA|B6|B4 dc|
B3 A FD|E4 AF|E2 EC B,C|A,4 F,2|
B,2 ({D/C/}B,)A, B,C|F2 E3 C|B,6|B,4|]
